X:1
T:Title
%%score { ( 1 4 ) | ( 2 3 ) }
L:1/8
M:6/8
K:F
V:1 treble nm="Grand Piano"
V:4 treble 
V:2 bass 
V:3 bass 
V:1
 z3 z2[Q:1/4=95] C | FFF EFG | F3- F2 [EG] | AAA [Ac][GB][FA] | [EG]3- [EG]2 [FA] | %5
 [GB][GB][GB] [GB][FA][EG] | AAA AGF | [DG][DG]D FFE |[M:5/8] F-F- F3 |[M:1/8] F | %10
[M:3/4] [EG][EG] [EG][EG] [FA][GB] | [FA]B cd cA | [EG]A Bc B[CFA] | [EG]4- [B,EG]C | F6 | F6 | %16
 fc AG FD |[M:5/8] F-F- F3 |] %18
V:2
 z3 z2 [F,A,] | [F,A,C][F,A,C][F,A,C] [C,G,C][C,A,C][C,B,C] | [F,A,C]3- [F,A,C]2 [C,C] | %3
 [F,CF][F,CF][F,CF] [F,C][F,C][F,C] | [C,C]3- [C,C]2 [C,C] | [C,C][C,C][C,C] [C,C][C,C][C,C] | %6
 [F,CF][F,CF][F,CF] [F,CF][F,B,C][F,A,C] | [B,,B,][B,,B,][B,,B,] [C,A,C][C,A,C][C,G,C] | %8
[M:5/8] [F,A,C]-[F,A,C]- [F,A,C]3 |[M:1/8] [F,A,C] |[M:3/4] [C,C][C,C] [C,C][C,C] [C,C][C,C] | %11
 z[K:treble] G AB A[F,CF] | z[K:treble] F GA G[K:bass]C, | C,E, G, C2 [G,B,] | %14
 [F,A,]G, A,B, A,[G,B,] | [F,A,]G, A,B, A,[G,B,E] | [F,A,F]3 .[F,B,D]3 | %17
[M:5/8] [F,A,C]2 [B,,B,] F,,2 |] %18
V:3
 x6 | x6 | x6 | x6 | x6 | x6 | x6 | x6 |[M:5/8] x5 |[M:1/8] x |[M:3/4] x6 | [F,C]6[K:treble] | %12
 [C,C]6[K:treble][K:bass] | x6 | x6 | x6 | x6 |[M:5/8] x5 |] %18
V:4
 x6 | x6 | x6 | x6 | x6 | x6 | x6 | x6 |[M:5/8] x5 |[M:1/8] x |[M:3/4] x6 | x6 | x6 | C4 z2 | %14
 z B, CD CC | z B, CD Cc | x6 |[M:5/8] z2 D [A,C]2 |] %18

